!!!!SEGMENT: pl-kk--kk-i-636--001-005_anonim--in-corona-domini-lamentatio-3tia.krn
!!!cenid: 18xx:4527
!!!COM: Anonim
!!!COM-rismID: pe30004985
!!!CDT:
!!!CNT:
!!!OPR: In Corona Domini
!!!OTL: Lamentatio 3tia
!!!OMV: 005
!!!PDT:
!!!AGN: Sacred
!!!YEC: Copyright 2022 Narodowy Instytut Fryderyka Chopina (https://polishscores.org)
!!!YEM: License CC-BY-4.0 (https://creativecommons.org/licenses/by/4.0)
!!!SMS-siglum: PL-Kk
!!!SMS-shelfmark: Kk.I.636
!!!SMS-variant:
!!!SMS-altvar:
!!!SMS-shelfwork: 001-005 M
!!!NIFC-rismSourceID: 1001216440
!!!NIFC-rismChildID: 1001216905
!!!NIFC-islandoraID: pl-kk:40786
!!!URL-pdf-islandora: https://repozytorium.nifc.pl/islandora/object/pl-kk%3A40786/datastream/PDF/view
!!!URL-scan: https://polish.musicsources.pl/pl/lokalizacje/galeria/rekopisy/7271/1 @EN{Scan on Polish Music Sources Website} @PL{Skany w portalu Dziedzictwo Muzyki Polskiej w otwartym dostępie}
!!!IIIF:
!!!ONB-nifc: UWAGA: Lamentacje i Responsoria In Corona Domini na skanach: S – 1-7, A – 24-30, T – 45-52, B – 70-78. Każda Lamentacja i Responsorium to oddzielne pliki.
!!!AIN: 1 alto 1 bass 1 soprn 1 tenor
!!!key:
**kern	**text	**kern	**text	**kern	**text	**kern	**text
*part4	*part4	*part3	*part3	*part2	*part2	*part1	*part1
*staff4	*staff4	*staff3	*staff3	*staff2	*staff2	*staff1	*staff1
*I"Basso.	*	*I"Tenore.	*	*I"Alto.	*	*I"Soprano.	*
*I'B	*	*I'T	*	*I'A	*	*I'S	*
*Ibass	*	*Itenor	*	*Ialto	*	*Isoprn	*
*ICvox	*	*ICvox	*	*ICvox	*	*ICvox	*
*clefF4	*	*clefC4	*	*clefC3	*	*clefC1	*
*k[b-e-a-d-]	*	*k[b-e-a-d-]	*	*k[b-e-a-d-]	*	*k[b-e-a-d-]	*
*A-:	*	*A-:	*	*A-:	*	*A-:	*
*M2/4	*	*M2/4	*	*M2/4	*	*M2/4	*
=1	=1	=1	=1	=1	=1	=1	=1
4AA-/	Jod,	4e-\	Jod_	4a-\	Jod,	4cc\	Jod,
4E-\	.	4d-\	.	4g\	.	4b-\	.
=2	=2	=2	=2	=2	=2	=2	=2
4A-\	.	4c\	.	4e-\	.	4a-\	.
4E-\	.	4d-\	.	4e-\	.	4b-\	.
=3	=3	=3	=3	=3	=3	=3	=3
*2\right	*	*2\right	*	*2\right	*	*2\right	*
2AA-;/	.	2c;\	,	2e-;\	.	2cc;\	.
!LO:LB:g=original	!	!LO:LB:g=original	!	!LO:LB:g=original	!	!LO:LB:g=original	!
==4	==4	==4	==4	==4	==4	==4	==4
4A-\	ma-	4c\	ma-	4a-\	Ma-	4a-\	ma-
4E-\	-num	4e-\	-num	4g\	-num	4b-\	-num
=5	=5	=5	=5	=5	=5	=5	=5
8AA-/	su-	8e-\	su-	8a-\	su-	8cc\	su-
8A-\	-am	8e-\	-am	8a-\	-am	8cc\	-am
8A-\	mi-	8e-\	mi-	8a-\	mi-	8cc\	mi-
8A-\	-sit	8e-\	-sit	8a-\	-sit	8cc\	-sit
=6	=6	=6	=6	=6	=6	=6	=6
8A-\	hos-	8e-\L	hos-	8a-\	hos-	8cc\	hos-
8A-\	-tis	8e-\J	-tis	8a-\	-tis,	8cc\	-tis
8r	.	8r	.	8r	.	8r	.
8A-\	ad	8e-\	ad	8a-\	ad	8cc\	ad
!	!	!	!	!	!	!LO:LB:g=original	!
=7	=7	=7	=7	=7	=7	=7	=7
8A-\	o-	8e-\	o-	8a-\	om-	8cc\	o-
16A-\	-mni-	16e-\	-mni-	16a-\	-ni-	16cc\	-mni-
16A-\	-a	16e-\	-a	16a-\	-a	16cc\	-a
!LO:LB:g=original	!	!LO:LB:g=original	!	!LO:N:vis=4	!	!	!
8A-\	de-	8e-\	de-	8a-\	de-	8cc\	de-
16A-\	-si-	16e-\	-si-	16a-\	-si-	16cc\	-si-
16A-\	-de-	16e-\	-de-	16a-\	-de-	16cc\	-de-
!	!	!	!	!LO:LB:g=original	!	!	!
=8	=8	=8	=8	=8	=8	=8	=8
4A-\	-ra-	4e-\	-ra-	4a-\	-ra-	4cc\	-ra-
!	!	!LO:TX:t=P:problem:kreska taktowa między nutą a kropką	!	!LO:TX:t=P:problem:kreska taktowa między nutą a kropką	!	!LO:TX:t=P:problem:kreska taktowa między nutą a kropką	!
[4B-\	-bi-	[y4e-\	-bi-	[4g\	-bi-	[4dd-\	-bi-
=9	=9	=9	=9	=9	=9	=9	=9
!	!	!LO:N:xstem:cue	!	!LO:N:xstem:cue	!	!LO:N:xstem:cue	!
8B-\]	.	8e-\]	.	8g\]	.	8dd-\]	.
8A-\	-li-	8e-\	-li-	8a-\	-li-	8cc\	-li-
4A-\	-a	4e-\	-a	4a-\	-a	4cc\	-a
!	!	!	!	!	!	!LO:LB:g=original	!
=10	=10	=10	=10	=10	=10	=10	=10
4E-\	e-	4e-\	e-	4g\	e-	4b-\	e-
4E-\	-jus,	4e-\	-jus,	4g\	-jus,	[4b-\	-jus,
=11	=11	=11	=11	=11	=11	=11	=11
4E-\	.	2e-;\	.	4g\	.	4b-\]	.
4A-;\	.	.	.	4a-;\	.	4cc;\	.
!LO:LB:g=original	!	!	!	!	!	!	!
=12||	=12||	=12||	=12||	=12||	=12||	=12||	=12||
4A-\	qui-	4c\	qui-	4a-\	qui-	4a-\	qui-
4E-\	-a	4e-\	-a	4g\	-a	4b-\	-a
!	!	!LO:LB:g=original	!	!	!	!	!
=13	=13	=13	=13	=13	=13	=13	=13
8AA-/	vi-	8e-\	vi-	8a-\	vi-	8cc\	vi-
8A-\	-dit	8e-\	-dit	8a-\	-dit	8cc\	-dit
8A-\	gen-	8e-\	gen-	8a-\	gen-	8cc\	gen-
8A-\	-tes	8e-\	-tes	8a-\	-tes	8cc\	-tes
!	!	!	!	!LO:LB:g=original	!	!LO:LB:g=original	!
=14	=14	=14	=14	=14	=14	=14	=14
8r	.	8r	.	8r	.	8r	.
8A-\	in-	8e-\	in-	8a-\	in-	8cc\	in-
8A-\	-gres-	8e-\	-gres-	8a-\	-gres-	8cc\	-gres-
8A-\	-sas	8e-\	-sas	8a-\	-sas	8cc\	-sas
=15	=15	=15	=15	=15	=15	=15	=15
8A-\	san-	8e-\	san-	8a-\	san-	8cc\	san-
8A-\	-ctu-	8e-\	-ctu-	8a-\	-ctu-	8cc\	-ctu-
!LO:LB:g=original	!	!	!	!	!	!	!
8A-\	a-	8e-\	-a-	8a-\	-a-	8cc\	-a-
16A-\	ri-	16e-\	-ri-	16a-\	-ri-	16cc\	-ri-
16A-\	-um	16e-\	-um	16a-\	-um	16cc\	-um
!	!	!LO:LB:g=original	!	!	!	!	!
=16	=16	=16	=16	=16	=16	=16	=16
8A-\	su-	8e-\	su-	8a-\	su-	8cc\	su-
8A-\	-um,	8e-\	-um,	8a-\	-um,	8cc\	-um,
8r	.	8r	.	8r	.	8r	.
8A-\	de	8e-\	de	8a-\	de	8cc\	de
!	!	!	!	!LO:LB:g=original	!	!LO:LB:g=original	!
=17	=17	=17	=17	=17	=17	=17	=17
8A-\	qui-	8e-\	qui-	8a-\	qui-	8cc\	qui-
16A-\	-bus	16e-\	-bus	16a-\	-bus	16cc\	-bus
16A-\	pre-	16e-\	pre-	16a-\	pre-	16cc\	pre-
16.A-\	-ce-	8e-\	-ce-	16.a-\	-ce-	16.cc\	-ce-
32A-\	-pe-	.	.	32a-\	-pe-	32cc\	-pe-
8A-\	-ras	16e-\	-pe-	8a-\	-ras	8cc\	-rus
.	.	16e-\	-rus	.	.	.	.
!LO:LB:g=original	!	!	!	!	!	!	!
=18	=18	=18	=18	=18	=18	=18	=18
4r	.	4r	.	4r	.	4r	.
8A-\	ne	8e-\	ne	8a-\	ne	8cc\	ne
8A-\	in-	8e-\	in-	8a-\	in-	8cc\	in-
!	!	!LO:LB:g=original	!	!	!	!	!
=19	=19	=19	=19	=19	=19	=19	=19
8A-\	-tra-	8e-\	-tra-	8a-\	-tra-	8cc\	-tra-
8A-\	-rent	8e-\	-rent	8a-\	-rent	8cc\	-rent
8A-\	in	8e-\	in	8a-\	in	8cc\	in
8A-\	ec-	8e-\	Ec-	8a-\	Ec-	8cc\	Ec-
!	!	!	!	!LO:LB:g=original	!	!	!
=20	=20	=20	=20	=20	=20	=20	=20
8.E-\	-cle-	8.e-\	-cle-	8.g\	-cle-	8.dd-\	-cle-
16E-\	-si-	16e-\	-si-	16g\	-si-	16b-\	-si-
4E-\	-am	4d-\	-am	4e-\	-am	4b-\	-am
!	!	!	!	!	!	!LO:LB:g=original	!
=21	=21	=21	=21	=21	=21	=21	=21
4A-\	tu-	4c\	tu-	2e-\	tu-	4a-\	tu-
4E-\	.	4B-\	.	.	.	4g\	.
!LO:LB:g=original	!	!	!	!	!	!	!
=22	=22	=22	=22	=22	=22	=22	=22
4AA-/	.	4c\	.	2e-\	.	4a-\	.
4E-\	.	4d-\	.	.	.	4b-\	.
!	!	!LO:LB:g=original	!	!	!	!	!
=23	=23	=23	=23	=23	=23	=23	=23
!LO:TX:t=P:problem:2\right:global	!	!	!	!	!	!	!
2E-\	-am,	2d-\	-am,	2e-\	.	2b-\	-am,
=24	=24	=24	=24	=24	=24	=24	=24
2AA-;/	.	2c;\	.	2e-;\	-am.	2a-;\	.
=25||	=25||	=25||	=25||	=25||	=25||	=25||	=25||
4AA-/	Caph,	2e-\	Caph_	4a-\	Caph_	4cc\	Caph-
4E-\	.	.	.	4g\	.	4b-\	.
!	!	!	!	!	!	!LO:LB:g=original	!
=26	=26	=26	=26	=26	=26	=26	=26
4A-\	.	4e-\	.	4e-\	.	4a-\	.
4E-\	.	4d-\	.	4e-\	.	4b-\	.
=27	=27	=27	=27	=27	=27	=27	=27
2AA-;/	.	2c;\	.	2e-;\	.	2a-;\	.
!	!	!	!	!LO:LB:g=original	!	!	!
=28||	=28||	=28||	=28||	=28||	=28||	=28||	=28||
4A-\	o-	4c\	O-	4a-\	O-	4a-\	o-
4E-\	-mnis	4e-\	-mnis	4g\	-mnis	4b-\	-mnis
=29	=29	=29	=29	=29	=29	=29	=29
8AA-/	po-	8e-\	po-	8a-\	po-	8cc\	po-
16A-\	-pu-	16e-\	-pu-	16a-\	-pu-	16cc\	-pu-
16A-\	-lus	16e-\	-lus	16a-\	-lus	16cc\	-lus
8A-\	e-	8e-\	e-	8a-\	e-	8cc\	e-
8A-\	-jus	8e-\	-jus	8a-\	-jus	8cc\	-jus
!	!	!LO:LB:g=original	!	!	!	!LO:LB:g=original	!
=30	=30	=30	=30	=30	=30	=30	=30
8A-\	ge-	8e-\	ge-	8a-\	ge-	8cc\	ge-
8A-\	-mens,	8e-\	-mens,	8a-\	-mens,	8cc\	-mens
8r	.	8r	.	8r	.	8r	.
8A-\	et	8e-\	et	8a-\	et	8cc\	et
=31	=31	=31	=31	=31	=31	=31	=31
4B-\	que-	4e-\	que-	4g\	que-	4dd-\	que-
!	!	!	!	!LO:TX:a:t=V.S.	!	!	!
4A-\	-rens	4e-\	-rens	4a-\	-rens	4cc\	-rens
!	!	!	!	!LO:PB:g=original	!	!	!
=32	=32	=32	=32	=32	=32	=32	=32
4E-\	pa-	4e-\	pa-	4g\	pa-	4b-\	pa-
(4E-\	-nem,	[4e-\	-nem	4g\	-nem,	4b-\	-nem,
!LO:LB:g=original	!	!	!	!	!	!	!
=33	=33	=33	=33	=33	=33	=33	=33
4A-\)	.	4e-\]	.	4a-\	.	4cc\	.
!	!	!	!	!	!	!LO:TX:a:t=V.S.	!
4r	.	4r	.	4r	.	4r	.
!	!	!	!	!	!	!LO:PB:g=original	!
=34	=34	=34	=34	=34	=34	=34	=34
8r	.	8r	.	8r	.	8r	.
8A-\	de-	8e-\	de-	8a-\	de-	8cc\	de-
8A-\	-de-	8e-\	-de-	8a-\	-de-	8cc\	-de-
8A-\	-runt	8e-\	-runt	8a-\	-runt	8cc\	-runt
!	!	!LO:LB:g=original	!	!	!	!	!
=35	=35	=35	=35	=35	=35	=35	=35
8A-\	pre-	8e-\	pre-	8a-\	pre-	8cc\	pre-
8A-\	-ti-	8e-\	-ti-	8a-\	-ti-	8cc\	-ti-
8A-\	-o-	8e-\	-o-	8a-\	-o-	8cc\	-o-
8A-\	-sa,	8e-\	-sa	8a-\	-sa	8cc\	-sa
=36	=36	=36	=36	=36	=36	=36	=36
4r	.	4r	.	4r	.	4r	.
8A-\	quae	8e-\	quae	8a-\	quae	8cc\	quae
8A-\	pro	8e-\	pro	8a-\	pro	8cc\	pro
!LO:LB:g=original	!	!	!	!LO:LB:g=original	!	!	!
=37	=37	=37	=37	=37	=37	=37	=37
8A-\	ci-	8e-\	ci-	8a-\	ci-	8cc\	ci-
8A-\	-bo	8e-\	-bo	8a-\	-bo,	8cc\	-bo,
8r	.	8r	.	8r	.	8r	.
8A-\	ad	8e-\	ad	8a-\	ad	8cc\	ad
!	!	!	!	!	!	!LO:LB:g=original	!
=38	=38	=38	=38	=38	=38	=38	=38
4A-\	re-	4e-\	re-	4a-\	re-	4cc\	re-
8A-\	-fo-	8e-\	-fo-	8a-\	-fo-	8cc\	-fo-
8A-\	-cil-	8e-\	-cil-	8a-\	-cil-	8cc\	-cil-
!	!	!LO:LB:g=original	!	!	!	!	!
=39	=39	=39	=39	=39	=39	=39	=39
4E-\	-lan-	4e-\	-lan-	4g\	-lan-	4dd-\	-lan-
4E-\	-dam	4d-\	-dam	4g\	-dam	4b-\	-dam
=40	=40	=40	=40	=40	=40	=40	=40
4.E-\	a-	4.d-\	a-	4.g\	a-	4.b-\	a-
8E-\	-ni-	8d-\	-ni-	8g\	-ni-	8b-\	-ni-
=41	=41	=41	=41	=41	=41	=41	=41
2E-\	-mam,	2d-\	-mam,	2e-\	-mam,	2b-\	-mam,
=42	=42	=42	=42	=42	=42	=42	=42
2AA-;/	.	2c;\	.	2e-;\	.	2a-;\	.
!LO:LB:g=original	!	!	!	!LO:LB:g=original	!	!	!
=43||	=43||	=43||	=43||	=43||	=43||	=43||	=43||
4A-\	vi-	4c\	vi-	4a-\	vi-	4a-\	vi-
4E-\	-de	4e-\	-de	4g\	-de	4b-\	-de
!	!	!	!	!	!	!LO:LB:g=original	!
=44	=44	=44	=44	=44	=44	=44	=44
8AA-/	Do-	8e-\	Do-	8a-\	Do-	8cc\	Do-
8A-\	-mi-	8e-\	-mi-	8a-\	-mi-	8cc\	-mi-
4A-\	-ne	4e-\	-ne	4a-\	-ne	4cc\	-ne
=45	=45	=45	=45	=45	=45	=45	=45
4B-\	et	4e-\	et	4g\	et	4dd-\	et
4A-\	con-	4e-\	con-	4a-\	con-	4cc\	con-
!	!	!LO:LB:g=original	!	!	!	!	!
=46	=46	=46	=46	=46	=46	=46	=46
8E-\	-si-	8e-\	-si-	8g\	-si-	8b-\	-si-
8E-\	-de-	8e-\	-de-	8g\	-de-	8b-\	-de-
4E-\	-ra,	4e-\	-ra,	4g\	-ra,	4b-\	-ra,
=47	=47	=47	=47	=47	=47	=47	=47
2A-\	.	2e-\	.	2a-\	.	2cc\	.
!LO:LB:g=original	!	!	!	!	!	!	!
=48	=48	=48	=48	=48	=48	=48	=48
4r	.	4r	.	4r	.	4r	.
8A-\	quo-	8e-\	quo-	8a-\	quo-	8cc\	quo-
16A-\	-ni-	16e-\	-ni-	16a-\	-ni-	16cc\	-ni-
16A-\	-am	16e-\	-am	16a-\	-am	16cc\	-am
!	!	!	!	!LO:LB:g=original	!	!LO:LB:g=original	!
=49	=49	=49	=49	=49	=49	=49	=49
4E-\	fac-	4e-\	fac-	4g\	fac-	4dd-\	fac-
8E-\	-ta	8d-\	-ta	8g\	-ta	8b-\	-ta
8E-\	sum	8d-\	sum	8e-\	sum	8b-\	sum
=50	=50	=50	=50	=50	=50	=50	=50
4A-\	vi-	4c\	vi-	2e-\	vi-	4a-\	vi
4E-\	.	4B-\	.	.	.	4g\	.
!	!	!LO:LB:g=original	!	!	!	!	!
=51	=51	=51	=51	=51	=51	=51	=51
4AA-/	.	4c\	.	2e-\	.	4a-\	.
4E-\	.	4d-\	.	.	.	4b-\	.
=52	=52	=52	=52	=52	=52	=52	=52
2E-\	-lis.	2d-\	-lis	2e-\	-lis	2b-\	lis.
=53	=53	=53	=53	=53	=53	=53	=53
2AA-;/	.	2c;\	.	2e-;\	.	2a-;\	.
!LO:PB:g=original	!	!	!	!	!	!	!
=54||	=54||	=54||	=54||	=54||	=54||	=54||	=54||
4AA-/	La-	4e-\	La-	4a-\	La-	4cc\	La-
4E-\	.	4d-\	.	4g\	.	4b-\	.
=55	=55	=55	=55	=55	=55	=55	=55
4A-\	.	4c\	.	4e-\	.	4a-\	.
4E-\	.	4d-\	.	4e-\	.	4b-\	.
!	!	!	!	!	!	!LO:LB:g=original	!
=56	=56	=56	=56	=56	=56	=56	=56
2AA-;/	-med.	2c;\	-med	2e-;\	-med.	2a-;\	-med.
!	!	!	!	!LO:LB:g=original	!	!	!
=57||	=57||	=57||	=57||	=57||	=57||	=57||	=57||
4A-\	o	4c\	o	4a-\	O	4a-\	o
4E-\	vos	4e-\	vos	4g\	vos	4b-\	vos
!	!	!LO:PB:g=original	!	!	!	!	!
=58	=58	=58	=58	=58	=58	=58	=58
8AA-/	o-	8e-\	o-	8a-\	o-	8cc\	o-
8A-\	-mnes	8e-\	-mnes	8a-\	-mnes	8cc\	-mnes
8A-\	qui	8e-\	qui	8a-\	qui	8cc\	qui
8A-\	tran-	8e-\	tran-	8a-\	tran-	8cc\	tran-
!LO:LB:g=original	!	!	!	!	!	!	!
=59	=59	=59	=59	=59	=59	=59	=59
4A-\	-si-	4e-\	-si-	4a-\	-si-	4cc\	-si-
8A-\	-tis	8e-\	-tis	8a-\	-tis	8cc\	-tis
8A-\	per	8e-\	per	8a-\	per	8cc\	per
!	!	!	!	!	!	!LO:LB:g=original	!
=60	=60	=60	=60	=60	=60	=60	=60
8A-\	vi-	8e-\	vi-	8a-\	vi-	8cc\	vi-
8A-\	-am,	8e-\	-am,	8a-\	-am,	8cc\	-am,
8r	.	8r	.	8r	.	8r	.
8A-\	at-	8e-\	at-	8a-\	at-	8cc\	at-
=61	=61	=61	=61	=61	=61	=61	=61
8.A-\	-ten-	8.e-\	-ten-	8.a-\	-ten-	8.cc\	-ten-
16A-\	-di-	16e-\	-di-	16a-\	-di-	16cc\	-di-
4A-\	-te	4e-\	-te	4a-\	-te	4cc\	-te,
!	!	!LO:LB:g=original	!	!LO:LB:g=original	!	!	!
=62	=62	=62	=62	=62	=62	=62	=62
8A-\	et	8e-\	et	8a-\	et	8cc\	et
8A-\	vi-	8e-\	vi-	8a-\	vi-	8cc\	vi-
8A-\	-de-	8e-\	-de-	8a-\	-de-	8cc\	-de-
8A-\	-te	8e-\	-te	8a-\	-te	8cc\	-te,
!LO:LB:g=original	!	!	!	!	!	!LO:LB:g=original	!
=63	=63	=63	=63	=63	=63	=63	=63
4r	.	4r	.	4r	.	4r	.
8A-\	si	8e-\	si	8a-\	si	8cc\	si
8A-\	est	8e-\	est	8a-\	est	8cc\	est
=64	=64	=64	=64	=64	=64	=64	=64
8A-\	do-	8e-\	do-	8a-\	do-	8cc\	do-
8A-\	-lor	8e-\	-lor	8a-\	-lor	8cc\	-lor,
8A-\	si-	8e-\	si-	8a-\	si-	8cc\	si-
8A-\	-cut	8e-\	-cut	8a-\	-cut	8cc\	-cut
=65	=65	=65	=65	=65	=65	=65	=65
4B-\	do-	4e-\	do-	4g\	do-	4dd-\	do-
4A-\	-lor	4e-\	-lor	4a-\	-lor	4cc\	-lor
!	!	!LO:LB:g=original	!	!	!	!	!
=66	=66	=66	=66	=66	=66	=66	=66
4E-\	me-	4e-\	me-	4g\	me-	4b-\	me-
4E-\	-us,	4e-\	-us,	(4g\	-us,	4b-\	-us,
!	!	!	!	!LO:LB:g=original	!	!	!
=67	=67	=67	=67	=67	=67	=67	=67
4A-\	.	4e-\	.	4a-\)	.	4cc\	.
4r	.	4r	.	4r	.	4r	.
!LO:LB:g=original	!	!	!	!	!	!LO:LB:g=original	!
=68	=68	=68	=68	=68	=68	=68	=68
4A-\	quo-	4c\	quo-	4a-\	quo-	(4a-\	quo-
!	!	!LO:TX:t=P:problem:kreska taktowa między nutą a kropką	!	!	!	!	!
(4E-\	.	[4e-\	.	4g\	.	(4b-\)	.
=69	=69	=69	=69	=69	=69	=69	=69
!	!	!LO:N:xstem:cue	!	!	!	!	!
8AA-/)	.	8e-\]	.	8a-\	.	8cc\)	.
8A-\	-ni-	8e-\	-ni-	8a-\	-ni-	8cc\	-ni-
4A-\	-am	4e-\	-am	4a-\	-am	4cc\	-am
=70	=70	=70	=70	=70	=70	=70	=70
8r	.	8r	.	8r	.	8r	.
8A-\	vi-	8e-\	vi-	8a-\	vin-	8cc\	vi-
8A-\	-de-	8e-\	-de-	8a-\	-de-	8cc\	-de
8A-\	-mi-	8e-\	-mi-	8a-\	-mi-	8cc\	mi-
!	!	!LO:LB:g=original	!	!	!	!	!
=71	=71	=71	=71	=71	=71	=71	=71
8A-\	-a-	4e-\	-a-	8a-\	-a-	8cc\	-a-
8A-\	-vit	.	.	8a-\	-vit	8cc\	-vit
4A-\	me,	8e-\	-vit	4a-\	me	4cc\	me
.	.	8e-\	me	.	.	.	.
!LO:LB:g=original	!	!	!	!LO:LB:g=original	!	!LO:LB:g=original	!
=72	=72	=72	=72	=72	=72	=72	=72
8A-\	ut	8e-\	ut	8a-\	ut	8cc\	ut
8A-\	lo-	8e-\	lo-	8a-\	lo-	8cc\	lo-
8A-\	-cu-	8e-\	-cu-	8a-\	-cu-	8cc\	-cu-
16A-\	-tus	16e-\	-tus	16a-\	-tus	16cc\	-tus
16A-\	est	16e-\	est	16a-\	est	16cc\	est
=73	=73	=73	=73	=73	=73	=73	=73
8.A-\	Do-	8.e-\	Do-	8.a-\	Do-	8.cc\	Do-
16A-\	-mi-	16e-\	-mi-	16a-\	-mi-	16cc\	-mi-
4A-\	-nus,	4e-\	-nus	4a-\	-nus	4cc\	-nus
=74	=74	=74	=74	=74	=74	=74	=74
8r	.	8r	.	8r	.	8r	.
8A-\	in	8e-\	in	8a-\	in	8cc\	in
8A-\	di-	8e-\	di-	8a-\	di-	8cc\	di-
8A-\	-e	8e-\	-e	8a-\	-e	8cc\	-e
!LO:LB:g=original	!	!LO:LB:g=original	!	!	!	!LO:LB:g=original	!
=75	=75	=75	=75	=75	=75	=75	=75
4A-\	i-	4e-\	i-	4a-\	i-	4cc\	i-
8A-\	-rae	8e-\	-rae	8a-\	-rae	8cc\	-rae
8A-\	fu-	8e-\	fu-	8a-\	fu-	8cc\	fu-
!	!	!	!	!LO:LB:g=original	!	!	!
=76	=76	=76	=76	=76	=76	=76	=76
4E-\	-ro-	4e-\	-ro-	4g\	-ro-	4dd-\	-ro-
4E-\	-ris	4d-\	-ris	4g\	-ris	4b-\	-ris
=77	=77	=77	=77	=77	=77	=77	=77
4A-\	su-	4c\	su-	2e-\	su-	4a-\	su-
4E-\	.	4B-\	.	.	.	4g\	.
=78	=78	=78	=78	=78	=78	=78	=78
4AA-/	.	4c\	.	2e-\	.	4a-\	.
4E-\	.	4d-\	.	.	.	4b-\	.
=79	=79	=79	=79	=79	=79	=79	=79
2E-\	-i,	2d-\	-i,	2e-\	-i,	2b-\	-i,
=80	=80	=80	=80	=80	=80	=80	=80
2AA-;/	.	2c;\	.	2e-;\	.	2a-;\	.
!LO:LB:g=original	!	!LO:LB:g=original	!	!	!	!LO:LB:g=original	!
=81||	=81||	=81||	=81||	=81||	=81||	=81||	=81||
4AA-/	Mem,	4e-\	Mem	4a-\	Mem	4cc\	Mem-
4E-\	.	4d-\	.	4g\	.	4b-\	.
=82	=82	=82	=82	=82	=82	=82	=82
4A-\	.	4c\	.	4e-\	.	4a-\	.
4E-\	.	4d-\	.	4e-\	.	4b-\	.
=83	=83	=83	=83	=83	=83	=83	=83
2AA-;/	.	2c;\	.	2e-;\	.	2a-;\	.
!	!	!	!	!LO:LB:g=original	!	!	!
=84||	=84||	=84||	=84||	=84||	=84||	=84||	=84||
4A-\	de	4c\	de	4a-\	de	4a-\	de
4E-\	ex-	4e-\	ex-	4g\	ex-	4b-\	ex-
=85	=85	=85	=85	=85	=85	=85	=85
8AA-/	-cel-	8e-\	-cel-	8a-\	-cel-	8cc\	-cel-
8A-\	-so	8e-\	-so	8a-\	-so	8cc\	-so
8A-\	mi-	8e-\	mi-	8a-\	mi-	8cc\	mi-
8A-\	-sit	8e-\	-sit	8a-\	-sit	8cc\	-sit
!LO:LB:g=original	!	!	!	!	!	!LO:LB:g=original	!
=86	=86	=86	=86	=86	=86	=86	=86
8A-\	i-	8e-\	i-	8a-\	i-	8cc\	i-
8A-\	-gnem,	8e-\	-gnem,	8a-\	-gnem,	8cc\	-gnem,
8r	.	8r	.	8r	.	8r	.
8A-\	in	8e-\	in	8a-\	in	8cc\	in
!	!	!LO:LB:g=original	!	!	!	!	!
=87	=87	=87	=87	=87	=87	=87	=87
4A-\	os-	4e-\	os-	4a-\	os-	4cc\	os-
8A-\	-si-	8e-\	-si-	8a-\	-si-	8cc\	-si-
8A-\	-bus	8e-\	-bus	8a-\	-bus	8cc\	-bus
!	!	!	!	!LO:LB:g=original	!	!	!
=88	=88	=88	=88	=88	=88	=88	=88
8A-\	me-	8e-\	me-	8a-\	me-	8cc\	me-
8A-\	-is,	8e-\	-is,	8a-\	-is,	8cc\	-is,
8r	.	8r	.	8r	.	8r	.
8A-\	et	8e-\	et	8a-\	et	8cc\	et
=89	=89	=89	=89	=89	=89	=89	=89
4B-\	e-	4e-\	e-	4g\	e-	4dd-\	e-
4A-\	-ru	4e-\	-ru	4a-\	-ru	4cc\	-ru
!LO:LB:g=original	!	!	!	!	!	!LO:PB:g=original	!
=90	=90	=90	=90	=90	=90	=90	=90
8E-\	di-	8e-\	di-	8g\	di-	8b-\	di-
8E-\	-vit	8e-\	-vit	8g\	-vit	8b-\	-vit
4E-\	me,	[4e-\	me,	4g\	me,	4b-\	me,
=91	=91	=91	=91	=91	=91	=91	=91
4A-\	.	4e-\]	.	4a-\	.	4cc\	.
4r	.	4r	.	4r	.	4r	.
!	!	!LO:LB:g=original	!	!	!	!	!
=92	=92	=92	=92	=92	=92	=92	=92
4A-\	ex-	4c\	ex-	4a-\	ex-	4a-\	ex-
8.E-\	-pan-	8.e-\	-pan-	8.g\	-pan-	8.b-\	-pan-
16AA-/	-dit	16e-\	-dit	16a-\	-dit	16cc\	-dit
!	!	!	!	!LO:LB:g=original	!	!	!
=93	=93	=93	=93	=93	=93	=93	=93
8AA-/	re-	8e-\	re-	8a-\	re-	8cc\	re-
8A-\	-te	8e-\	-te	8a-\	-te	8cc\	-te
8A-\	pe-	8e-\	pe-	8a-\	pe-	8cc\	pe-
16A-\	-di-	16e-\	-di-	16a-\	-di-	16cc\	-di-
16A-\	-bus	16e-\	-bus	16a-\	-bus	16cc\	-bus
!LO:LB:g=original	!	!	!	!	!	!LO:LB:g=original	!
=94	=94	=94	=94	=94	=94	=94	=94
8A-\	me-	8e-\	me-	8a-\	me-	8cc\	me-
8A-\	-is,	8e-\	-is,	8a-\	-is,	8cc\	-is,
8r	.	8r	.	8r	.	8r	.
8A-\	con-	8e-\	con-	8a-\	con-	8cc\	con-
=95	=95	=95	=95	=95	=95	=95	=95
4A-\	-ver-	4e-\	-ver-	4a-\	-ver-	4cc\	-ver-
4A-\	-tit	4e-\	-tit	4a-\	-tit	4cc\	-tit
!	!	!LO:LB:g=original	!	!	!	!	!
=96	=96	=96	=96	=96	=96	=96	=96
4E-\	me	4e-\	me	4g\	me	4dd-\	me
8E-\	re-	8d-\	re-	8g\	re-	8b-\	re-
8E-\	-fror-	8d-\	-tror-	8e-\	-tror-	8b-\	-tror-
!	!	!	!	!LO:PB:g=original	!	!	!
=97	=97	=97	=97	=97	=97	=97	=97
2E-\	-sum,	2d-\	-sum,	2e-\	-sum,	2b-\	-sum,
=98	=98	=98	=98	=98	=98	=98	=98
2AA-;/	.	2c;\	.	2e-;\	.	2a-;\	.
!	!	!	!	!	!	!LO:LB:g=original	!
=99||	=99||	=99||	=99||	=99||	=99||	=99||	=99||
4A-\	po-	4c\	po-	4a-\	po-	4a-\	po-
[4E-\	.	[4e-\	.	(4g\	.	4b-\	.
=100	=100	=100	=100	=100	=100	=100	=100
16E-\]	.	16e-\]	.	16a-\)	.	16cc\	.
16A-\	-su-	16e-\	-su-	16a-\	-su-	16cc\	-su-
8A-\	-it	8e-\	-it	8a-\	-it	8cc\	-it
16r	.	16r	.	16r	.	16r	.
16A-\	me	16e-\	me	16a-\	me	16cc\	me
16A-\	de-	16e-\	de-	16a-\	de-	16cc\	de-
16A-\	-so-	16e-\	-so-	16a-\	-so-	16cc\	-so-
!	!	!LO:LB:g=original	!	!	!	!	!
=101	=101	=101	=101	=101	=101	=101	=101
8A-\	-la-	8e-\	-la-	8a-\	-la-	8cc\	-la-
8A-\	-tam	8e-\	-tam	8a-\	-tum	8cc\	-tum
8r	.	8r	.	8r	.	8r	.
16A-\	to-	16e-\	to-	16a-\	to-	16cc\	to-
16A-\	-ta	16e-\	-ta	16a-\	-ta	16cc\	-ta
!	!	!	!	!LO:LB:g=original	!	!LO:LB:g=original	!
=102	=102	=102	=102	=102	=102	=102	=102
8A-\	di-	8e-\	di-	8a-\	di-	8cc\	di-
8A-\	-e	8e-\	-e	8a-\	-e	8cc\	-e
8r	.	8r	.	8r	.	8r	.
8A-\	me-	8e-\	me-	8a-\	me-	8cc\	me-
=103	=103	=103	=103	=103	=103	=103	=103
4E-\	-ro-	4e-\	-ro-	4g\	-ro-	4dd-\	-ro-
8E-\	-re	8d-\	-re	8g\	-re	8b-\	-re
8E-\	con-	8d-\	con-	8e-\	con-	8b-\	con-
=104	=104	=104	=104	=104	=104	=104	=104
4A-\	-fec-	4c\	-fec-	2e-\	-fec-	4a-\	-fe-
4E-\	.	4B-\	.	.	.	4g\	.
!	!	!LO:LB:g=original	!	!	!	!	!
=105	=105	=105	=105	=105	=105	=105	=105
4AA-/	.	4c\	.	2e-\	.	4a-\	.
4E-\	.	4d-\	.	.	.	4b-\	.
=106	=106	=106	=106	=106	=106	=106	=106
2E-\	-tam.	2d-\	-tam,	2e-\	-tam,	2b-\	-ctam,
=107	=107	=107	=107	=107	=107	=107	=107
!LO:TX:a:t=Volti Subito&colon;	!	!	!	!	!	!	!
2AA-;/	.	2c;\	.	2e-;\	.	2a-;\	.
!LO:PB:g=original	!	!	!	!	!	!LO:LB:g=original	!
=108||	=108||	=108||	=108||	=108||	=108||	=108||	=108||
4AA-/	Nun,	4e-\	Nun	4a-\	Nun	4cc\	Nun
4E-\	.	4d-\	.	4g\	.	4b-\	.
!	!	!	!	!LO:LB:g=original	!	!	!
=109	=109	=109	=109	=109	=109	=109	=109
4A-\	.	4c\	.	4e-\	.	4a-\	.
4E-\	.	4d-\	.	4e-\	.	4b-\	.
=110	=110	=110	=110	=110	=110	=110	=110
2AA-;/	.	2c;\	.	2e-;\	.	2a-;\	.
=111||	=111||	=111||	=111||	=111||	=111||	=111||	=111||
4A-\	vi-	4c\	vi-	4a-\	vi-	4a-\	vi-
4E-\	-gi-	4e-\	-fi-	4g\	-gi-	4b-\	-gi-
=112	=112	=112	=112	=112	=112	=112	=112
8AA-/	-la-	8e-\	-la-	8a-\	-la-	8cc\	-la-
8A-\	-vit	8e-\	-vit	8a-\	-vit	8cc\	-vit
8A-\	ju-	8e-\	ju-	8a-\	ju-	8cc\	ju-
8A-\	-gum,	8e-\	-gum	8a-\	-gum	8cc\	-gum
!	!	!LO:LB:g=original	!	!	!	!	!
=113	=113	=113	=113	=113	=113	=113	=113
8r	.	8r	.	8r	.	8r	.
8A-\	i-	8e-\	i-	8a-\	i-	8cc\	i-
8A-\	-ni-	8e-\	-ni-	8a-\	-ni-	8cc\	-ni-
8A-\	-qui-	8e-\	-qui-	8a-\	-qui-	8cc\	-qui-
!LO:LB:g=original	!	!	!	!	!	!LO:LB:g=original	!
=114	=114	=114	=114	=114	=114	=114	=114
4B-\	-ta-	4e-\	-ta-	4g\	-ta-	4dd-\	-ta-
4A-\	-tum	4e-\	-tum	4a-\	-tum	4cc\	-tum
!	!	!	!	!LO:LB:g=original	!	!	!
=115	=115	=115	=115	=115	=115	=115	=115
8A-\	me-	8e-\	me-	8a-\	me-	8cc\	me-
8E-\	-a-	8e-\	-a-	8g\	-a-	8b-\	-a-
(4E-\	-rum,	[4e-\	-rum	4g\	-rum,	4b-\	-rum,
=116	=116	=116	=116	=116	=116	=116	=116
4A-\)	.	4e-\]	.	4a-\	.	4cc\	.
!	!	!LO:TX:a:t=V.S.	!	!	!	!	!
4r	.	4r	.	4r	.	4r	.
!	!	!LO:PB:g=original	!	!	!	!	!
=117	=117	=117	=117	=117	=117	=117	=117
4A-\	in	4c\	in	4a-\	in	4a-\	in
8.E-\	ma-	8.e-\	ma-	8.g\	ma-	8.b-\	ma-
16AA-/	-nu	16e-\	-nu	16a-\	-nu	16cc\	-nu
=118	=118	=118	=118	=118	=118	=118	=118
8AA-/	e-	8e-\	e-	8a-\	e-	8cc\	e-
8A-\	-jus	8e-\	-jus	8a-\	-jus	8cc\	-jus
8A-\	con-	8e-\	con-	8a-\	con-	8cc\	con-
8A-\	-vo-	8e-\	-vo-	8a-\	-vo-	8cc\	-vo-
!LO:LB:g=original	!	!	!	!	!	!LO:LB:g=original	!
=119	=119	=119	=119	=119	=119	=119	=119
8A-\	-lu-	8e-\	-lu-	8a-\	-lu-	8cc\	-lu-
8A-\	-tae	8e-\	-ta	8a-\	-tae	8cc\	-tae
4A-\	sunt,	4e-\	sunt	4a-\	sunt	4cc\	sunt
!	!	!	!	!LO:LB:g=original	!	!	!
=120	=120	=120	=120	=120	=120	=120	=120
4r	.	4r	.	4r	.	4r	.
8A-\	et	8e-\	et	8a-\	et	8cc\	et
8A-\	im-	8e-\	im-	8a-\	im-	8cc\	im-
!	!	!LO:LB:g=original	!	!	!	!	!
=121	=121	=121	=121	=121	=121	=121	=121
8A-\	-po-	8e-\	-po-	8.a-\	-po-	8cc\	-po-
16A-\	-si-	16e-\	-si-	.	.	16cc\	-si-
16A-\	-lae	16e-\	-tae	16a-\	-si-	16cc\	-tae
[4A-\	col-	[4e-\	col-	4a-\	-tae	4cc\	col-
=122	=122	=122	=122	=122	=122	=122	=122
4A-\]	.	4e-\]	.	4g\	col-	4dd-\	.
4A-\	-lo	4e-\	-lo	4a-\	-lo	4cc\	-lo
!LO:LB:g=original	!	!	!	!	!	!	!
=123	=123	=123	=123	=123	=123	=123	=123
4E-\	me-	4e-\	me-	4g\	me-	4b-\	me-
4E-\	-o,	[4e-\	-o	4g\	-o,	4b-\	-o,
=124	=124	=124	=124	=124	=124	=124	=124
4A-\	.	4e-\]	.	4a-\	.	4cc\	.
4r	.	4r	.	4r	.	4r	.
!	!	!	!	!	!	!LO:LB:g=original	!
=125	=125	=125	=125	=125	=125	=125	=125
4r	.	4r	.	4r	.	4r	.
8A-\	in-	8e-\	in-	8a-\	in-	8cc\	in-
8A-\	-fir-	8e-\	-fir-	8a-\	-fir-	8cc\	-fir-
!	!	!LO:LB:g=original	!	!LO:LB:g=original	!	!	!
=126	=126	=126	=126	=126	=126	=126	=126
8A-\	-ma-	8e-\	-ma-	8a-\	-ma-	8cc\	-ma-
8A-\	-ta	8e-\	-ta	8a-\	-ta	8cc\	-ta
4A-\	est	4e-\	est	4a-\	est	4cc\	est
=127	=127	=127	=127	=127	=127	=127	=127
4r	.	4r	.	4r	.	4r	.
8A-\	vir-	8e-\	vir-	8a-\	vir-	8cc\	vir-
8A-\	-tus	8e-\	-tus	8a-\	-tus	8cc\	-tus
!LO:LB:g=original	!	!	!	!	!	!	!
=128	=128	=128	=128	=128	=128	=128	=128
8A-\	me-	8e-\	me-	8a-\	me-	8cc\	me-
8A-\	-a,	8e-\	-a	8a-\	-a	8cc\	-a
4r	.	4r	.	4r	.	4r	.
=129	=129	=129	=129	=129	=129	=129	=129
8r	.	8r	.	8r	.	8r	.
8A-\	de-	8e-\	de-	8a-\	de-	8cc\	de-
8A-\	-dit	8e-\	-dit	8a-\	-dit	8cc\	-dit
8A-\	me	8e-\	me	8a-\	me	8cc\	me
!	!	!LO:LB:g=original	!	!	!	!LO:LB:g=original	!
=130	=130	=130	=130	=130	=130	=130	=130
8A-\	Do-	8e-\	Do-	8a-\	Do-	8cc\	Do-
8A-\	-mi-	8e-\	-mi-	8a-\	-mi-	8cc\	-mi-
4A-\	-nus	4e-\	-nus	4a-\	-nus	4cc\	-nus
!	!	!	!	!LO:LB:g=original	!	!	!
=131	=131	=131	=131	=131	=131	=131	=131
8r	.	8r	.	8r	.	8r	.
8A-\	in	8e-\	in	8a-\	in	8cc\	in
8A-\	ma-	8e-\	ma-	8a-\	ma-	8cc\	ma-
8A-\	-nu,	8e-\	-nu	8a-\	-nu	8cc\	-nu
!LO:LB:g=original	!	!	!	!	!	!	!
=132	=132	=132	=132	=132	=132	=132	=132
8r	.	8r	.	8r	.	8r	.
8A-\	de	8e-\	de	8a-\	de	8cc\	de
8A-\	qua	8e-\	quo	8a-\	qua	8cc\	qua
8A-\	non	8e-\	non	8a-\	non	8cc\	non
=133	=133	=133	=133	=133	=133	=133	=133
8.E-\	po-	8.e-\	po-	8.g\	po-	8.dd-\	po-
16E-\	-te-	16d-\	-te-	16g\	-te-	16b-\	-te-
4E-\	-ro	4d-\	-ro	4e-\	-ro	4b-\	-ro
!	!	!LO:LB:g=original	!	!	!	!	!
=134	=134	=134	=134	=134	=134	=134	=134
4A-\	sur-	4c\	sur-	[2e-\	sur-	4a-\	sur-
4E-\	.	4B-\	.	.	.	4g\	.
!	!	!	!	!	!	!LO:LB:g=original	!
=135	=135	=135	=135	=135	=135	=135	=135
4AA-/	.	4c\	.	4.e-\]	.	4a-\	.
8.E-\	.	8.d-\	.	.	.	8.b-\	.
.	.	.	.	8e-\	-ge-	.	.
16E-\	-ge-	16d-\	-ge-	.	.	16b-\	-ge-
=136	=136	=136	=136	=136	=136	=136	=136
2E-\	-re,	2d-\	-re,	2e-\	-re	2b-\	-re,
!LO:LB:g=original	!	!	!	!LO:LB:g=original	!	!	!
=137	=137	=137	=137	=137	=137	=137	=137
2AA-;/	.	2c;\	.	2e-;\	.	2a-;\	.
=138||	=138||	=138||	=138||	=138||	=138||	=138||	=138||
4A-\	Je-	4c\	Je-	4a-\	Je-	4a-\	Je-
(4E-\	-ru-	[4e-\	-ru-	(4g\	-ru-	(4b-\	-ru-
=139	=139	=139	=139	=139	=139	=139	=139
8AA-/)	.	8e-\]	.	8a-\)	.	8cc\)	.
8A-\	-sa-	8e-\	-sa-	8a-\	-sa-	8cc\	-sa-
4A-\	-lem,	4e-\	-lem,	4a-\	-lem,	4cc\	-lem,
!	!	!LO:LB:g=original	!	!	!	!	!
=140	=140	=140	=140	=140	=140	=140	=140
4r	.	4r	.	4r	.	4r	.
4A-\	Je-	4e-\	Je-	4a-\	Je-	4cc\	Je-
=141	=141	=141	=141	=141	=141	=141	=141
4B-\	-ru-	[2e-\	-ru-	4g\	-ru-	4dd-\	-ru-
4A-\	.	.	.	(4a-\	.	(4cc\	.
!	!	!	!	!	!	!LO:LB:g=original	!
=142	=142	=142	=142	=142	=142	=142	=142
8E-\	.	8e-\]	.	8g\)	.	8b-\)	.
8E-\	-sa-	8e-\	-sa-	8g\	-sa-	8b-\	-sa-
4E-\	-lem,	4e-\	-lem,	4g\	-lem,	4b-\	-lem,
!LO:LB:g=original	!	!	!	!	!	!	!
=143	=143	=143	=143	=143	=143	=143	=143
2A-;\	.	2e-;\	.	2a-;\	.	2cc;\	.
=144	=144	=144	=144	=144	=144	=144	=144
4A-\	con-	4c\	con-	4a-\	con-	4a-\	con-
4E-\	-ver-	[4e-\	-ver-	(4g\	-ver-	(4b-\	-ver-
!	!	!	!	!LO:LB:g=original	!	!	!
=145	=145	=145	=145	=145	=145	=145	=145
8AA-/	.	8e-\]	.	8a-\)	.	8cc\)	.
8A-\	-te-	8e-\	-te-	8a-\	-te-	8cc\	-te-
4A-\	-re,	4e-\	-re	4a-\	-re	4cc\	-re
!	!	!LO:LB:g=original	!	!	!	!	!
=146	=146	=146	=146	=146	=146	=146	=146
8r	.	8r	.	8r	.	8r	.
8A-\	ad	8e-\	ad	8a-\	ad	8cc\	ad
8A-\	Do-	8e-\	Do-	8a-\	Do-	8cc\	Do-
16A-\	-mi-	16e-\	-mi-	8a-\	-mi	16cc\	-mi-
16A-\	-num	16e-\	-num	.	.	16cc\	-num
=147	=147	=147	=147	=147	=147	=147	=147
4E-\	De-	4e-\	De-	4g\	De-	4dd-\	De-
4E-\	-um	4d-\	-um	4g\	-um	4b-\	-um
!LO:LB:g=original	!	!	!	!	!	!LO:LB:g=original	!
=148	=148	=148	=148	=148	=148	=148	=148
4A-\	tu-	4c\	tu-	2e-\	tu-	4a-\	tu-
4E-\	.	4B-\	.	.	.	4g\	.
=149	=149	=149	=149	=149	=149	=149	=149
4AA-/	.	4c\	.	2e-\	.	4a-\	.
4E-\	.	4d-\	.	.	.	4b-\	.
=150	=150	=150	=150	=150	=150	=150	=150
2E-\	-um.	2d-\	-um,	2e-\	-um.	2b-\	-um.
=151	=151	=151	=151	=151	=151	=151	=151
!	!	!	!	!	!	!LO:TX:a:t=Seq Responsorium 3m.	!
2AA-;/	.	2c;\	.	2e-;\	.	2a-;\	.
==	==	==	==	==	==	==	==
*-	*-	*-	*-	*-	*-	*-	*-
!!!system-decoration: [(s1,s2,s3,s4)]
!!!ENC: Anastazja Marusiak
!!!END: 2023-11-14
!!!ENC: Leszek Kubiak
!!!END: 2024-06-11
